X:10
T:King George IV
R:Strathspey
A:Cape Breton
S:Sandy MacIntyre
Z:abc transcription wil macaulay wil@syndesis.com
Z:http://www.interlog.com/~torocelt/tuneofthemonth.html
M:C
L:1/8
K:Am
A|: E<A,A,>B, C>B,A,<A| E<A,A,>C B,>A,G,>B, | E<A,A,>B, C>DE>C | B,<DG>E D/C/B,/A,/ G,B,:|
^c>eA>e c<e d/c/B/A/| ^c>eA>e d/c/B/A/ GeA>e c>eA>^f| g>g a/g/^f/e/ d/c/B/A/ GB|
^c>eA>e c>e d/c/B/A/| ^c>eA>e d/c/B/A/ GAG<E D/C/B,/A, G,B,||
